; generated by Slic3r 1.3.0 on 2023-08-25 at 12:16:48

; external perimeters extrusion width = 4.50mm (128.56mm^3/s)
; perimeters extrusion width = 4.50mm (257.12mm^3/s)
; infill extrusion width = 4.50mm (342.83mm^3/s)
; solid infill extrusion width = 4.50mm (85.71mm^3/s)
; top infill extrusion width = 4.50mm (64.28mm^3/s)

M107
M104 S205 ; set temperature
G28 ; home all axes
G1 Z5 F5000 ; lift nozzle

; Filament gcode

M109 S205 ; set temperature and wait for it to be reached
G21 ; set units to millimeters
G90 ; use absolute coordinates
M82 ; use absolute distances for extrusion
G92 E0
G1 Z2.400 F7800.000
G1 E-2.00000 F2400.00000
G92 E0
G1 X85.220 Y85.220 F7800.000
G1 E2.00000 F2400.00000
G1 F1800
G1 X-85.220 Y85.220 E257.52077
G1 X-85.220 Y-85.220 E513.04153
G1 X85.220 Y-85.220 E768.56230
G1 X85.220 Y84.545 E1023.07111
G1 E1021.07111 F2400.00000
G92 E0
G1 X81.235 Y81.235 F7800.000
G1 E2.00000 F2400.00000
G1 F1800
G1 X-81.235 Y81.235 E245.57240
G1 X-81.235 Y-81.235 E489.14480
G1 X81.235 Y-81.235 E732.71720
G1 X81.235 Y80.560 E975.27764
G1 E973.27764 F2400.00000
G92 E0
G1 X77.250 Y77.250 F7800.000
G1 E2.00000 F2400.00000
G1 F1800
G1 X-77.250 Y77.250 E233.62403
G1 X-77.250 Y-77.250 E465.24806
G1 X77.250 Y-77.250 E696.87209
G1 X77.250 Y76.575 E927.48418
G1 X78.415 Y81.597 F7800.000
G1 E925.48418 F2400.00000
G92 E0
G1 X177.280 Y177.280 F7800.000
G1 E2.00000 F2400.00000
G1 F1800
G1 X-177.280 Y177.280 E533.55119
G1 X-177.280 Y-177.280 E1065.10237
G1 X177.280 Y-177.280 E1596.65356
G1 X177.280 Y176.605 E2127.19280
G1 E2125.19280 F2400.00000
G92 E0
G1 X181.265 Y181.265 F7800.000
G1 E2.00000 F2400.00000
G1 F1800
G1 X-181.265 Y181.265 E545.49955
G1 X-181.265 Y-181.265 E1088.99911
G1 X181.265 Y-181.265 E1632.49866
G1 X181.265 Y180.590 E2174.98626
G1 E2172.98626 F2400.00000
G92 E0
G1 X185.250 Y185.250 F7800.000
G1 E2.00000 F2400.00000
G1 F1800
G1 X-185.250 Y185.250 E557.44792
G1 X-185.250 Y-185.250 E1112.89584
G1 X185.250 Y-185.250 E1668.34376
G1 X185.250 Y184.575 E2222.77973
G1 X180.903 Y184.085 F7800.000
G1 E2220.77973 F2400.00000
G92 E0
G1 X171.745 Y174.845 F7800.000
G1 E2.00000 F2400.00000
G1 F1800
G1 X174.845 Y171.745 E8.57194
G1 X174.845 Y166.110 E17.02081
G1 X166.110 Y174.845 E35.54125
G1 X160.474 Y174.845 E43.99013
G1 X174.845 Y160.474 E74.45908
G1 X174.845 Y154.838 E82.90795
G1 X154.838 Y174.845 E125.32542
G1 X149.203 Y174.845 E133.77429
G1 X174.845 Y149.203 E188.14027
G1 X174.845 Y143.567 E196.58914
G1 X143.567 Y174.845 E262.90362
G1 X137.932 Y174.845 E271.35250
G1 X174.845 Y137.932 E349.61550
G1 X174.845 Y132.296 E358.06436
G1 X132.296 Y174.845 E448.27587
G1 X126.660 Y174.845 E456.72474
G1 X174.845 Y126.660 E558.88475
G1 X174.845 Y121.025 E567.33362
G1 X121.025 Y174.845 E681.44213
G1 X115.389 Y174.845 E689.89101
G1 X174.845 Y115.389 E815.94803
G1 X174.845 Y109.754 E824.39690
G1 X109.753 Y174.845 E962.40244
G1 X104.118 Y174.845 E970.85131
G1 X174.845 Y104.118 E1120.80535
G1 X174.845 Y98.482 E1129.25422
G1 X98.482 Y174.845 E1291.15678
G1 X92.847 Y174.845 E1299.60565
G1 X174.845 Y92.847 E1473.45671
G1 X174.845 Y87.211 E1481.90558
G1 X87.211 Y174.845 E1667.70515
G1 X81.575 Y174.845 E1676.15402
G1 X174.845 Y81.575 E1873.90210
G1 X174.845 Y75.940 E1882.35098
G1 X75.940 Y174.845 E2092.04759
G1 X70.304 Y174.845 E2100.49646
G1 X174.845 Y70.304 E2322.14158
G1 X174.845 Y64.669 E2330.59045
G1 X64.669 Y174.845 E2564.18407
G1 X59.033 Y174.845 E2572.63294
G1 X174.845 Y59.033 E2818.17506
G1 X174.845 Y53.397 E2826.62393
G1 X53.397 Y174.845 E3084.11458
G1 X47.762 Y174.845 E3092.56346
G1 X174.845 Y47.762 E3362.00261
G1 X174.845 Y42.126 E3370.45148
G1 X42.126 Y174.845 E3651.83914
G1 X36.491 Y174.845 E3660.28801
G1 X174.845 Y36.491 E3953.62418
G1 X174.845 Y30.855 E3962.07305
G1 X30.855 Y174.845 E4267.35772
G1 X25.219 Y174.845 E4275.80660
G1 X174.845 Y25.219 E4593.03979
G1 X174.845 Y19.584 E4601.48866
G1 X19.584 Y174.845 E4930.67035
G1 X13.948 Y174.845 E4939.11923
G1 X174.845 Y13.948 E5280.24943
G1 X174.845 Y8.313 E5288.69830
G1 X8.312 Y174.845 E5641.77701
G1 X2.677 Y174.845 E5650.22588
G1 X89.867 Y87.655 E5835.08414
G1 X84.231 Y87.655 E5843.53301
G1 X-2.959 Y174.845 E6028.39125
G1 X-8.594 Y174.845 E6036.84013
G1 X78.596 Y87.655 E6221.69838
G1 X72.960 Y87.655 E6230.14726
G1 X-14.230 Y174.845 E6415.00552
G1 X-19.866 Y174.845 E6423.45438
G1 X67.324 Y87.655 E6608.31263
G1 X61.689 Y87.655 E6616.76150
G1 X-25.501 Y174.845 E6801.61975
G1 X-31.137 Y174.845 E6810.06864
G1 X56.053 Y87.655 E6994.92690
G1 X50.417 Y87.655 E7003.37577
G1 X-36.772 Y174.845 E7188.23403
G1 X-42.408 Y174.845 E7196.68290
G1 X44.782 Y87.655 E7381.54115
G1 X39.146 Y87.655 E7389.99003
G1 X-48.044 Y174.845 E7574.84827
G1 X-53.679 Y174.845 E7583.29715
G1 X33.511 Y87.655 E7768.15541
G1 X27.875 Y87.655 E7776.60428
G1 X-59.315 Y174.845 E7961.46253
G1 X-64.950 Y174.845 E7969.91140
G1 X22.239 Y87.655 E8154.76965
G1 X16.604 Y87.655 E8163.21852
G1 X-70.586 Y174.845 E8348.07678
G1 X-76.222 Y174.845 E8356.52565
G1 X10.968 Y87.655 E8541.38391
G1 X5.333 Y87.655 E8549.83278
G1 X-81.857 Y174.845 E8734.69104
G1 X-87.493 Y174.845 E8743.13990
G1 X-0.303 Y87.655 E8927.99815
G1 X-5.939 Y87.655 E8936.44702
G1 X-93.129 Y174.845 E9121.30529
G1 X-98.764 Y174.845 E9129.75416
G1 X-11.574 Y87.655 E9314.61241
G1 X-17.210 Y87.655 E9323.06128
G1 X-104.400 Y174.845 E9507.91954
G1 X-110.035 Y174.845 E9516.36841
G1 X-22.845 Y87.655 E9701.22665
G1 X-28.481 Y87.655 E9709.67552
G1 X-115.671 Y174.845 E9894.53379
G1 X-121.307 Y174.845 E9902.98266
G1 X-34.117 Y87.655 E10087.84092
G1 X-39.752 Y87.655 E10096.28979
G1 X-126.942 Y174.845 E10281.14804
G1 X-132.578 Y174.845 E10289.59693
G1 X-45.388 Y87.655 E10474.45520
G1 X-51.024 Y87.655 E10482.90408
G1 X-138.213 Y174.845 E10667.76233
G1 X-143.849 Y174.845 E10676.21120
G1 X-56.659 Y87.655 E10861.06946
G1 X-62.295 Y87.655 E10869.51834
G1 X-149.485 Y174.845 E11054.37658
G1 X-155.120 Y174.845 E11062.82547
G1 X-67.930 Y87.655 E11247.68374
G1 X-73.566 Y87.655 E11256.13261
G1 X-160.756 Y174.845 E11440.99087
G1 X-166.392 Y174.845 E11449.43974
G1 X-79.202 Y87.655 E11634.29800
G1 X-84.837 Y87.655 E11642.74687
G1 X-172.027 Y174.845 E11827.60512
G1 X-174.845 Y174.845 E11831.82959
G1 X-174.845 Y172.027 E11836.05400
G1 X-87.655 Y84.837 E12020.91221
G1 X-87.655 Y79.202 E12029.36108
G1 X-174.845 Y166.392 E12214.21929
G1 X-174.845 Y160.756 E12222.66816
G1 X-87.655 Y73.566 E12407.52637
G1 X-87.655 Y67.930 E12415.97524
G1 X-174.845 Y155.120 E12600.83342
G1 X-174.845 Y149.485 E12609.28229
G1 X-87.655 Y62.295 E12794.14048
G1 X-87.655 Y56.659 E12802.58935
G1 X-174.845 Y143.849 E12987.44753
G1 X-174.845 Y138.213 E12995.89640
G1 X-87.655 Y51.024 E13180.75460
G1 X-87.655 Y45.388 E13189.20347
G1 X-174.845 Y132.578 E13374.06167
G1 X-174.845 Y126.942 E13382.51053
G1 X-87.655 Y39.752 E13567.36873
G1 X-87.655 Y34.117 E13575.81760
G1 X-174.845 Y121.307 E13760.67580
G1 X-174.845 Y115.671 E13769.12467
G1 X-87.655 Y28.481 E13953.98288
G1 X-87.655 Y22.846 E13962.43174
G1 X-174.845 Y110.035 E14147.28995
G1 X-174.845 Y104.400 E14155.73884
G1 X-87.655 Y17.210 E14340.59702
G1 X-87.655 Y11.574 E14349.04589
G1 X-174.845 Y98.764 E14533.90408
G1 X-174.845 Y93.129 E14542.35295
G1 X-87.655 Y5.939 E14727.21113
G1 X-87.655 Y0.303 E14735.66000
G1 X-174.845 Y87.493 E14920.51819
G1 X-174.845 Y81.857 E14928.96706
G1 X-87.655 Y-5.332 E15113.82525
G1 X-87.655 Y-10.968 E15122.27412
G1 X-174.845 Y76.222 E15307.13231
G1 X-174.845 Y70.586 E15315.58118
G1 X-87.655 Y-16.604 E15500.43937
G1 X-87.655 Y-22.239 E15508.88824
G1 X-174.845 Y64.951 E15693.74644
G1 X-174.845 Y59.315 E15702.19531
G1 X-87.655 Y-27.875 E15887.05350
G1 X-87.655 Y-33.511 E15895.50238
G1 X-174.845 Y53.679 E16080.36058
G1 X-174.845 Y48.044 E16088.80945
G1 X-87.655 Y-39.146 E16273.66765
G1 X-87.655 Y-44.782 E16282.11653
G1 X-174.845 Y42.408 E16466.97471
G1 X-174.845 Y36.772 E16475.42358
G1 X-87.655 Y-50.417 E16660.28177
G1 X-87.655 Y-56.053 E16668.73064
G1 X-174.845 Y31.137 E16853.58882
G1 X-174.845 Y25.501 E16862.03769
G1 X-87.655 Y-61.689 E17046.89589
G1 X-87.655 Y-67.324 E17055.34476
G1 X-174.845 Y19.866 E17240.20295
G1 X-174.845 Y14.230 E17248.65182
G1 X-87.655 Y-72.960 E17433.51001
G1 X-87.655 Y-78.595 E17441.95888
G1 X-174.845 Y8.594 E17626.81708
G1 X-174.845 Y2.959 E17635.26596
G1 X-87.655 Y-84.231 E17820.12415
G1 X-87.655 Y-89.867 E17828.57302
G1 X-174.845 Y-2.677 E18013.43121
G1 X-174.845 Y-8.312 E18021.88008
G1 X-8.312 Y-174.845 E18374.95910
G1 X-13.948 Y-174.845 E18383.40798
G1 X-174.845 Y-13.948 E18724.53850
G1 X-174.845 Y-19.584 E18732.98737
G1 X-19.584 Y-174.845 E19062.16937
G1 X-25.219 Y-174.845 E19070.61823
G1 X-174.845 Y-25.219 E19387.85173
G1 X-174.845 Y-30.855 E19396.30060
G1 X-30.855 Y-174.845 E19701.58557
G1 X-36.490 Y-174.845 E19710.03444
G1 X-174.845 Y-36.490 E20003.37092
G1 X-174.845 Y-42.126 E20011.81979
G1 X-42.126 Y-174.845 E20293.20776
G1 X-47.762 Y-174.845 E20301.65663
G1 X-174.845 Y-47.762 E20571.09610
G1 X-174.845 Y-53.397 E20579.54497
G1 X-53.397 Y-174.845 E20837.03592
G1 X-59.033 Y-174.845 E20845.48479
G1 X-174.845 Y-59.033 E21091.02723
G1 X-174.845 Y-64.668 E21099.47609
G1 X-64.668 Y-174.845 E21333.07003
G1 X-70.304 Y-174.845 E21341.51889
G1 X-174.845 Y-70.304 E21563.16433
G1 X-174.845 Y-75.940 E21571.61320
G1 X-75.940 Y-174.845 E21781.31011
G1 X-81.575 Y-174.845 E21789.75899
G1 X-174.845 Y-81.575 E21987.50738
G1 X-174.845 Y-87.211 E21995.95625
G1 X-87.211 Y-174.845 E22181.75613
G1 X-92.847 Y-174.845 E22190.20501
G1 X-174.845 Y-92.847 E22364.05638
G1 X-174.845 Y-98.482 E22372.50525
G1 X-98.482 Y-174.845 E22534.40811
G1 X-104.118 Y-174.845 E22542.85699
G1 X-174.845 Y-104.118 E22692.81134
G1 X-174.845 Y-109.753 E22701.26022
G1 X-109.753 Y-174.845 E22839.26606
G1 X-115.389 Y-174.845 E22847.71493
G1 X-174.845 Y-115.389 E22973.77226
G1 X-174.845 Y-121.025 E22982.22113
G1 X-121.025 Y-174.845 E23096.32996
G1 X-126.660 Y-174.845 E23104.77883
G1 X-174.845 Y-126.660 E23206.93915
G1 X-174.845 Y-132.296 E23215.38802
G1 X-132.296 Y-174.845 E23305.59983
G1 X-137.931 Y-174.845 E23314.04871
G1 X-174.845 Y-137.931 E23392.31201
G1 X-174.845 Y-143.567 E23400.76088
G1 X-143.567 Y-174.845 E23467.07567
G1 X-149.203 Y-174.845 E23475.52455
G1 X-174.845 Y-149.203 E23529.89083
G1 X-174.845 Y-154.838 E23538.33971
G1 X-154.838 Y-174.845 E23580.75748
G1 X-160.474 Y-174.845 E23589.20636
G1 X-174.845 Y-160.474 E23619.67562
G1 X-174.845 Y-166.109 E23628.12449
G1 X-166.109 Y-174.845 E23646.64525
G1 X-171.745 Y-174.845 E23655.09412
G1 X-174.845 Y-171.745 E23661.66576
G1 E23659.66576 F2400.00000
G92 E0
G1 X-90.755 Y-86.767 F7800.000
G1 E2.00000 F2400.00000
G1 F1800
G1 X-90.755 Y-87.655 E3.33129
G1 X-89.867 Y-87.655 E4.66258
G1 X-2.677 Y-174.845 E189.52083
G1 X2.959 Y-174.845 E197.96970
G1 X-84.231 Y-87.655 E382.82795
G1 X-78.595 Y-87.655 E391.27682
G1 X8.595 Y-174.845 E576.13507
G1 X14.230 Y-174.845 E584.58395
G1 X-72.960 Y-87.655 E769.44221
G1 X-67.324 Y-87.655 E777.89108
G1 X19.866 Y-174.845 E962.74933
G1 X25.501 Y-174.845 E971.19820
G1 X-61.689 Y-87.655 E1156.05644
G1 X-56.053 Y-87.655 E1164.50532
G1 X31.137 Y-174.845 E1349.36358
G1 X36.773 Y-174.845 E1357.81245
G1 X-50.417 Y-87.655 E1542.67071
G1 X-44.782 Y-87.655 E1551.11958
G1 X42.408 Y-174.845 E1735.97783
G1 X48.044 Y-174.845 E1744.42670
G1 X-39.146 Y-87.655 E1929.28494
G1 X-33.511 Y-87.655 E1937.73381
G1 X53.679 Y-174.845 E2122.59207
G1 X59.315 Y-174.845 E2131.04094
G1 X-27.875 Y-87.655 E2315.89919
G1 X-22.239 Y-87.655 E2324.34806
G1 X64.951 Y-174.845 E2509.20631
G1 X70.586 Y-174.845 E2517.65519
G1 X-16.604 Y-87.655 E2702.51346
G1 X-10.968 Y-87.655 E2710.96233
G1 X76.222 Y-174.845 E2895.82059
G1 X81.857 Y-174.845 E2904.26946
G1 X-5.332 Y-87.655 E3089.12771
G1 X0.303 Y-87.655 E3097.57658
G1 X87.493 Y-174.845 E3282.43483
G1 X93.129 Y-174.845 E3290.88371
G1 X5.939 Y-87.655 E3475.74197
G1 X11.574 Y-87.655 E3484.19085
G1 X98.764 Y-174.845 E3669.04910
G1 X104.400 Y-174.845 E3677.49797
G1 X17.210 Y-87.655 E3862.35623
G1 X22.846 Y-87.655 E3870.80511
G1 X110.036 Y-174.845 E4055.66335
G1 X115.671 Y-174.845 E4064.11224
G1 X28.481 Y-87.655 E4248.97050
G1 X34.117 Y-87.655 E4257.41938
G1 X121.307 Y-174.845 E4442.27764
G1 X126.942 Y-174.845 E4450.72651
G1 X39.752 Y-87.655 E4635.58477
G1 X45.388 Y-87.655 E4644.03364
G1 X132.578 Y-174.845 E4828.89191
G1 X138.214 Y-174.845 E4837.34078
G1 X51.024 Y-87.655 E5022.19904
G1 X56.659 Y-87.655 E5030.64790
G1 X143.849 Y-174.845 E5215.50616
G1 X149.485 Y-174.845 E5223.95503
G1 X62.295 Y-87.655 E5408.81328
G1 X67.931 Y-87.655 E5417.26214
G1 X155.120 Y-174.845 E5602.12041
G1 X160.756 Y-174.845 E5610.56928
G1 X73.566 Y-87.655 E5795.42754
G1 X79.202 Y-87.655 E5803.87641
G1 X166.392 Y-174.845 E5988.73467
G1 X172.027 Y-174.845 E5997.18353
G1 X84.837 Y-87.655 E6182.04178
G1 X87.655 Y-87.655 E6186.26606
G1 X87.655 Y-84.837 E6190.49065
G1 X174.845 Y-172.027 E6375.34885
G1 X174.845 Y-166.391 E6383.79772
G1 X87.655 Y-79.202 E6568.65591
G1 X87.655 Y-73.566 E6577.10479
G1 X174.845 Y-160.756 E6761.96300
G1 X174.845 Y-155.120 E6770.41187
G1 X87.655 Y-67.930 E6955.27008
G1 X87.655 Y-62.295 E6963.71895
G1 X174.845 Y-149.485 E7148.57715
G1 X174.845 Y-143.849 E7157.02604
G1 X87.655 Y-56.659 E7341.88423
G1 X87.655 Y-51.023 E7350.33309
G1 X174.845 Y-138.213 E7535.19128
G1 X174.845 Y-132.578 E7543.64015
G1 X87.655 Y-45.388 E7728.49834
G1 X87.655 Y-39.752 E7736.94721
G1 X174.845 Y-126.942 E7921.80541
G1 X174.845 Y-121.307 E7930.25428
G1 X87.655 Y-34.117 E8115.11247
G1 X87.655 Y-28.481 E8123.56134
G1 X174.845 Y-115.671 E8308.41954
G1 X174.845 Y-110.035 E8316.86841
G1 X87.655 Y-22.845 E8501.72661
G1 X87.655 Y-17.210 E8510.17548
G1 X174.845 Y-104.400 E8695.03369
G1 X174.845 Y-98.764 E8703.48256
G1 X87.655 Y-11.574 E8888.34077
G1 X87.655 Y-5.939 E8896.78964
G1 X174.845 Y-93.128 E9081.64784
G1 X174.845 Y-87.493 E9090.09672
G1 X87.655 Y-0.303 E9274.95490
G1 X87.655 Y5.333 E9283.40378
G1 X174.845 Y-81.857 E9468.26196
G1 X174.845 Y-76.222 E9476.71083
G1 X87.655 Y10.968 E9661.56902
G1 X87.655 Y16.604 E9670.01789
G1 X174.845 Y-70.586 E9854.87608
G1 X174.845 Y-64.950 E9863.32495
G1 X87.655 Y22.239 E10048.18314
G1 X87.655 Y27.875 E10056.63201
G1 X174.845 Y-59.315 E10241.49020
G1 X174.845 Y-53.679 E10249.93907
G1 X87.655 Y33.511 E10434.79727
G1 X87.655 Y39.146 E10443.24614
G1 X174.845 Y-48.044 E10628.10434
G1 X174.845 Y-42.408 E10636.55321
G1 X87.655 Y44.782 E10821.41142
G1 X87.655 Y50.417 E10829.86029
G1 X174.845 Y-36.772 E11014.71847
G1 X174.845 Y-31.137 E11023.16734
G1 X87.655 Y56.053 E11208.02553
G1 X87.655 Y61.689 E11216.47440
G1 X174.845 Y-25.501 E11401.33258
G1 X174.845 Y-19.866 E11409.78145
G1 X87.655 Y67.324 E11594.63964
G1 X87.655 Y72.960 E11603.08851
G1 X174.845 Y-14.230 E11787.94671
G1 X174.845 Y-8.594 E11796.39557
G1 X87.655 Y78.596 E11981.25377
G1 X87.655 Y84.231 E11989.70264
G1 X174.845 Y-2.959 E12174.56084
G1 X174.845 Y2.677 E12183.00972
G1 X87.655 Y89.867 E12367.86791
M104 S200 ; set temperature
G1 Z4.800 F7800.000
G1 X85.220 Y85.220 F7800.000
G1 F3600
G1 X-85.220 Y85.220 E12623.38867
G1 X-85.220 Y-85.220 E12878.90944
G1 X85.220 Y-85.220 E13134.43020
G1 X85.220 Y84.545 E13388.93902
G1 X81.235 Y81.235 F7800.000
G1 F3600
G1 X-81.235 Y81.235 E13632.51142
G1 X-81.235 Y-81.235 E13876.08381
G1 X81.235 Y-81.235 E14119.65621
G1 X81.235 Y80.560 E14362.21666
G1 X77.250 Y77.250 F7800.000
G1 F1800
G1 X-77.250 Y77.250 E14593.84069
G1 X-77.250 Y-77.250 E14825.46473
G1 X77.250 Y-77.250 E15057.08876
G1 X77.250 Y76.575 E15287.70084
G1 X78.415 Y81.597 F7800.000
G1 X177.280 Y177.280 F7800.000
G1 F3600
G1 X-177.280 Y177.280 E15819.25203
G1 X-177.280 Y-177.280 E16350.80321
G1 X177.280 Y-177.280 E16882.35440
