; generated by Slic3r 1.3.0 on 2023-10-24 at 14:24:53

; external perimeters extrusion width = 4.50mm (128.56mm^3/s)
; perimeters extrusion width = 4.50mm (257.12mm^3/s)
; infill extrusion width = 4.50mm (342.83mm^3/s)
; solid infill extrusion width = 4.50mm (85.71mm^3/s)
; top infill extrusion width = 4.50mm (64.28mm^3/s)

; external perimeters extrusion width = 4.50mm (128.56mm^3/s)
; perimeters extrusion width = 4.50mm (257.12mm^3/s)
; infill extrusion width = 4.50mm (342.83mm^3/s)
; solid infill extrusion width = 4.50mm (85.71mm^3/s)
; top infill extrusion width = 4.50mm (64.28mm^3/s)

M107
M104 S205 T0 ; set temperature
M104 S205 T1 ; set temperature
G28 ; home all axes
G1 Z5 F5000 ; lift nozzle

; Filament gcode

; Filament gcode

M109 S205 T0 ; set temperature and wait for it to be reached
M109 S205 T1 ; set temperature and wait for it to be reached
G21 ; set units to millimeters
G90 ; use absolute coordinates
M82 ; use absolute distances for extrusion
G92 E0
T0
G92 E0
G1 Z2.400 F7800.000
G1 E-2.00000 F2400.00000
G92 E0
G1 X-167.471 Y-103.930 F7800.000
G1 E2.00000 F2400.00000
G1 F1800
G1 X-103.930 Y-167.471 E136.71622
G1 X207.070 Y0.019 E666.27881
G1 X207.070 Y156.042 E900.18615
G1 X156.042 Y207.070 E1008.37343
G1 X0.019 Y207.070 E1242.28076
G1 X-167.151 Y-103.336 E1770.83141
G1 E1768.83141 F2400.00000
G92 E0
G1 X-162.556 Y-103.209 F7800.000
G1 E2.00000 F2400.00000
G1 F1800
G1 X-103.209 Y-162.556 E127.82562
G1 X203.085 Y2.399 E649.37485
G1 X203.085 Y154.392 E877.23954
G1 X154.392 Y203.085 E980.47764
G1 X2.399 Y203.085 E1208.34233
G1 X-162.236 Y-102.615 E1728.87961
G1 E1726.87961 F2400.00000
G92 E0
G1 X-157.642 Y-102.488 F7800.000
G1 E2.00000 F2400.00000
G1 F1800
G1 X-102.488 Y-157.642 E118.93501
G1 X199.100 Y4.779 E632.47088
G1 X199.100 Y152.741 E854.29292
G1 X152.741 Y199.100 E952.58185
G1 X4.779 Y199.100 E1174.40389
G1 X-157.322 Y-101.894 E1686.92781
G1 X-160.839 Y-105.655 F7800.000
G1 E1684.92781 F2400.00000
G92 E0
G1 X-215.996 Y-170.182 F7800.000
G1 E2.00000 F2400.00000
G1 F1800
G1 X-170.182 Y-215.996 E99.13471
G1 X218.380 Y-6.736 E760.76642
G1 X218.380 Y160.727 E1011.82374
G1 X160.727 Y218.380 E1134.05842
G1 X-6.736 Y218.380 E1385.11573
G1 X-215.676 Y-169.587 E2045.73550
G1 E2043.73550 F2400.00000
G92 E0
G1 X-220.911 Y-170.903 F7800.000
G1 E2.00000 F2400.00000
G1 F1800
G1 X-170.903 Y-220.911 E108.02530
G1 X222.365 Y-9.116 E777.67038
G1 X222.365 Y162.377 E1034.77035
G1 X162.377 Y222.365 E1161.95420
G1 X-9.116 Y222.365 E1419.05416
G1 X-220.591 Y-170.308 E2087.68730
G1 E2085.68730 F2400.00000
G92 E0
G1 X-225.825 Y-171.624 F7800.000
G1 E2.00000 F2400.00000
G1 F1800
G1 X-171.624 Y-225.825 E116.91590
G1 X226.350 Y-11.496 E794.57434
G1 X226.350 Y164.028 E1057.71696
G1 X164.028 Y226.350 E1189.84998
G1 X-11.496 Y226.350 E1452.99259
G1 X-225.505 Y-171.030 E2129.63909
G1 X-221.475 Y-172.774 F7800.000
G1 E2127.63909 F2400.00000
G92 E0
G1 X43.771 Y18.007 F7800.000
G1 E2.00000 F2400.00000
G1 F1800
G1 X114.160 Y18.007 E107.52618
G1 X149.355 Y78.966 E213.05241
G1 X114.160 Y139.925 E318.57876
G1 X43.771 Y139.925 E424.10495
G1 X8.577 Y78.966 E529.63140
G1 X43.434 Y18.592 E634.14578
G1 E632.14578 F2400.00000
G92 E0
G1 X46.072 Y21.992 F7800.000
G1 E2.00000 F2400.00000
G1 F1800
G1 X111.860 Y21.992 E100.62778
G1 X144.753 Y78.966 E199.25563
G1 X111.860 Y135.940 E297.88359
G1 X46.072 Y135.940 E396.51138
G1 X13.178 Y78.966 E495.13943
G1 X45.735 Y22.577 E592.75543
G1 E590.75543 F2400.00000
G92 E0
G1 X48.373 Y25.977 F7800.000
G1 E2.00000 F2400.00000
G1 F1800
G1 X109.559 Y25.977 E93.72938
G1 X140.152 Y78.966 E185.45885
G1 X109.559 Y131.955 E277.18842
G1 X48.373 Y131.955 E368.91780
G1 X17.780 Y78.966 E460.64746
G1 X48.035 Y26.562 E551.36507
G1 X48.373 Y21.477 F7800.000
G1 E549.36507 F2400.00000
G92 E0
G1 X37.241 Y6.697 F7800.000
G1 E2.00000 F2400.00000
G1 F1800
G1 X120.691 Y6.697 E127.10556
G1 X162.415 Y78.966 E252.21107
G1 X120.691 Y151.235 E377.31671
G1 X37.241 Y151.235 E502.42226
G1 X-4.483 Y78.966 E627.52790
G1 X36.904 Y7.282 E751.62146
G1 E749.62146 F2400.00000
G92 E0
G1 X34.941 Y2.712 F7800.000
G1 E2.00000 F2400.00000
G1 F1800
G1 X122.991 Y2.712 E134.00395
G1 X167.016 Y78.966 E266.00785
G1 X122.991 Y155.220 E398.01189
G1 X34.941 Y155.220 E530.01583
G1 X-9.084 Y78.966 E662.01987
G1 X34.603 Y3.297 E793.01181
G1 E791.01181 F2400.00000
G92 E0
G1 X32.640 Y-1.273 F7800.000
G1 E2.00000 F2400.00000
G1 F1800
G1 X125.292 Y-1.273 E140.90235
G1 X171.124 Y78.111 E278.32497
G1 X171.618 Y78.966 E279.80463
G1 X125.292 Y159.205 E418.70706
G1 X32.640 Y159.205 E557.60940
G1 X-13.686 Y78.966 E696.51184
G1 X32.303 Y-0.688 E834.40217
G1 X36.537 Y0.977 F7800.000
G1 E832.40217 F2400.00000
G92 E0
G1 X41.092 Y9.132 F7800.000
G1 E2.00000 F2400.00000
G1 F1800
G1 X37.992 Y12.232 E8.61127
G1 X30.248 Y25.645 E31.96694
G1 X39.374 Y16.519 E51.42961
G1 X39.921 Y15.572 E53.07826
G1 X40.321 Y15.572 E53.68171
G1 X46.761 Y9.132 E67.41586
G1 X52.430 Y9.132 E75.96463
G1 X45.990 Y15.572 E89.69878
G1 X51.659 Y15.572 E98.24754
G1 X58.099 Y9.132 E111.98170
G1 X63.767 Y9.132 E120.53047
G1 X57.328 Y15.572 E134.26461
G1 X62.996 Y15.572 E142.81338
G1 X69.436 Y9.132 E156.54753
G1 X75.105 Y9.132 E165.09630
G1 X68.665 Y15.572 E178.83045
G1 X74.334 Y15.572 E187.37922
G1 X80.774 Y9.132 E201.11337
G1 X86.443 Y9.132 E209.66213
G1 X80.003 Y15.572 E223.39628
G1 X85.672 Y15.572 E231.94504
G1 X92.112 Y9.132 E245.67920
G1 X97.780 Y9.132 E254.22796
G1 X91.341 Y15.572 E267.96211
G1 X97.009 Y15.572 E276.51087
G1 X103.449 Y9.132 E290.24502
G1 X109.118 Y9.132 E298.79379
G1 X102.678 Y15.572 E312.52795
G1 X108.347 Y15.572 E321.07672
G1 X114.787 Y9.132 E334.81086
G1 X119.940 Y9.132 E342.58128
G1 X120.129 Y9.459 E343.15107
G1 X114.016 Y15.572 E356.18738
G1 X114.911 Y15.572 E357.53784
G1 X116.659 Y18.598 E362.80737
G1 X122.203 Y13.053 E374.63290
G1 X124.278 Y16.647 E380.89103
G1 X118.733 Y22.192 E392.71658
G1 X120.808 Y25.786 E398.97472
G1 X126.353 Y20.241 E410.80028
G1 X128.428 Y23.835 E417.05841
G1 X122.883 Y29.380 E428.88398
G1 X124.958 Y32.974 E435.14212
G1 X130.503 Y27.429 E446.96770
G1 X132.578 Y31.023 E453.22583
G1 X127.033 Y36.568 E465.05142
G1 X129.108 Y40.162 E471.30956
G1 X134.653 Y34.617 E483.13516
G1 X136.728 Y38.211 E489.39329
G1 X131.183 Y43.756 E501.21890
G1 X133.258 Y47.349 E507.47704
G1 X138.803 Y41.804 E519.30267
G1 X140.878 Y45.398 E525.56080
G1 X135.333 Y50.943 E537.38644
G1 X137.408 Y54.537 E543.64458
G1 X142.953 Y48.992 E555.47022
G1 X145.028 Y52.586 E561.72835
G1 X139.483 Y58.131 E573.55402
G1 X141.558 Y61.725 E579.81216
G1 X147.103 Y56.180 E591.63783
G1 X149.178 Y59.774 E597.89597
G1 X143.633 Y65.319 E609.72166
G1 X145.708 Y68.913 E615.97980
G1 X151.253 Y63.368 E627.80551
G1 X153.328 Y66.962 E634.06364
G1 X147.782 Y72.507 E645.88936
G1 X149.857 Y76.101 E652.14749
G1 X155.402 Y70.556 E663.97322
G1 X157.477 Y74.149 E670.23135
G1 X151.932 Y79.695 E682.05710
G1 X152.407 Y80.516 E683.48719
G1 X146.432 Y90.863 E701.50551
G1 X158.658 Y78.637 E727.57980
G1 X150.915 Y92.050 E750.93540
G1 X138.689 Y104.276 E777.00950
G1 X130.945 Y117.688 E800.36492
G1 X143.171 Y105.462 E826.43883
G1 X135.427 Y118.875 E849.79444
G1 X123.201 Y131.101 E875.86815
G1 X115.458 Y144.513 E899.22358
G1 X127.684 Y132.287 E925.29710
G1 X119.940 Y145.700 E948.65271
G1 X116.840 Y148.800 E955.26380
G1 E953.26380 F2400.00000
G92 E0
G1 X111.171 Y148.800 F7800.000
G1 E2.00000 F2400.00000
G1 F1800
G1 X117.611 Y142.360 E15.73422
G1 X111.942 Y142.360 E24.28299
G1 X105.502 Y148.800 E38.01721
G1 X99.833 Y148.800 E46.56598
G1 X106.273 Y142.360 E60.30019
G1 X100.604 Y142.360 E68.84896
G1 X94.165 Y148.800 E82.58318
G1 X88.496 Y148.800 E91.13195
G1 X94.936 Y142.360 E104.86617
G1 X89.267 Y142.360 E113.41494
G1 X82.827 Y148.800 E127.14915
G1 X77.158 Y148.800 E135.69793
G1 X83.598 Y142.360 E149.43214
G1 X77.929 Y142.360 E157.98091
G1 X71.489 Y148.800 E171.71513
G1 X65.820 Y148.800 E180.26389
G1 X72.260 Y142.360 E193.99810
G1 X66.591 Y142.360 E202.54687
G1 X60.152 Y148.800 E216.28108
G1 X54.483 Y148.800 E224.82986
G1 X60.923 Y142.360 E238.56407
G1 X55.254 Y142.360 E247.11285
G1 X48.814 Y148.800 E260.84706
G1 X43.145 Y148.800 E269.39583
G1 X49.585 Y142.360 E283.13005
G1 X43.916 Y142.360 E291.67881
G1 X37.803 Y148.473 E304.71520
G1 X35.729 Y144.879 E310.97333
G1 X41.273 Y139.334 E322.79874
G1 X39.198 Y135.740 E329.05687
G1 X33.654 Y141.285 E340.88228
G1 X31.579 Y137.691 E347.14041
G1 X37.124 Y132.146 E358.96582
G1 X35.049 Y128.552 E365.22395
G1 X29.504 Y134.097 E377.04935
G1 X27.429 Y130.503 E383.30748
G1 X32.974 Y124.958 E395.13289
G1 X30.899 Y121.364 E401.39103
G1 X25.354 Y126.909 E413.21644
G1 X23.279 Y123.315 E419.47457
G1 X28.824 Y117.771 E431.29999
G1 X26.749 Y114.177 E437.55812
G1 X21.204 Y119.722 E449.38353
G1 X19.129 Y116.128 E455.64166
G1 X24.674 Y110.583 E467.46708
G1 X22.599 Y106.989 E473.72521
G1 X17.054 Y112.534 E485.55063
G1 X14.979 Y108.940 E491.80876
G1 X20.524 Y103.395 E503.63418
G1 X18.449 Y99.801 E509.89231
G1 X12.904 Y105.346 E521.71774
G1 X10.829 Y101.752 E527.97587
G1 X16.374 Y96.207 E539.80129
G1 X14.299 Y92.613 E546.05943
G1 X8.754 Y98.158 E557.88486
G1 X6.679 Y94.564 E564.14299
G1 X12.224 Y89.019 E575.96842
G1 X10.149 Y85.426 E582.22656
G1 X4.605 Y90.970 E594.05199
G1 X2.530 Y87.377 E600.31012
G1 X8.074 Y81.832 E612.13556
G1 X6.000 Y78.238 E618.39370
G1 X0.455 Y83.783 E630.21914
G1 X-1.431 Y80.516 E635.90773
G1 X-0.727 Y79.295 E638.03329
G1 X11.499 Y67.070 E664.10649
G1 X19.243 Y53.657 E687.46212
G1 X7.017 Y65.883 E713.53528
G1 X14.761 Y52.470 E736.89094
G1 X26.986 Y40.244 E762.96407
G1 X34.730 Y26.832 E786.31969
G1 X22.505 Y39.057 E812.39278
G1 X30.248 Y25.645 E835.74844
G1 E833.74844 F2400.00000
G92 E0
G1 X151.857 Y215.945 F7800.000
G1 E2.00000 F2400.00000
G1 F1800
G1 X158.297 Y209.505 E15.73522
G1 X152.628 Y209.505 E24.28532
G1 X146.188 Y215.945 E38.02054
G1 X140.518 Y215.945 E46.57064
G1 X146.958 Y209.505 E60.30585
G1 X141.289 Y209.505 E68.85596
G1 X134.849 Y215.945 E82.59118
G1 X129.180 Y215.945 E91.14128
G1 X135.620 Y209.505 E104.87650
G1 X129.950 Y209.505 E113.42661
G1 X123.511 Y215.945 E127.16182
G1 X117.841 Y215.945 E135.71193
G1 X124.281 Y209.505 E149.44715
G1 X118.612 Y209.505 E157.99725
G1 X112.172 Y215.945 E171.73247
G1 X106.503 Y215.945 E180.28257
G1 X112.943 Y209.505 E194.01781
G1 X107.273 Y209.505 E202.56792
G1 X100.833 Y215.945 E216.30315
G1 X95.164 Y215.945 E224.85325
G1 X101.604 Y209.505 E238.58847
G1 X95.935 Y209.505 E247.13857
G1 X89.495 Y215.945 E260.87380
G1 X83.826 Y215.945 E269.42390
G1 X90.266 Y209.505 E283.15912
G1 X84.596 Y209.505 E291.70922
G1 X78.156 Y215.945 E305.44445
G1 X72.487 Y215.945 E313.99456
G1 X78.927 Y209.505 E327.72979
G1 X73.258 Y209.505 E336.27990
G1 X66.818 Y215.945 E350.01513
G1 X61.149 Y215.945 E358.56523
G1 X67.588 Y209.505 E372.30045
G1 X61.919 Y209.505 E380.85055
G1 X55.479 Y215.945 E394.58578
G1 X49.810 Y215.945 E403.13589
G1 X56.250 Y209.505 E416.87112
G1 X50.581 Y209.505 E425.42123
G1 X44.141 Y215.945 E439.15646
G1 X38.471 Y215.945 E447.70656
G1 X44.911 Y209.505 E461.44178
G1 X39.242 Y209.505 E469.99188
G1 X32.802 Y215.945 E483.72710
G1 X27.133 Y215.945 E492.27721
G1 X33.573 Y209.505 E506.01243
G1 X27.904 Y209.505 E514.56253
G1 X21.464 Y215.945 E528.29776
G1 X15.794 Y215.945 E536.84787
G1 X22.234 Y209.505 E550.58309
G1 X16.565 Y209.505 E559.13318
G1 X10.125 Y215.945 E572.86842
G1 X4.456 Y215.945 E581.41853
G1 X10.896 Y209.505 E595.15378
G1 X5.226 Y209.505 E603.70388
G1 X-1.213 Y215.945 E617.43910
G1 X-5.906 Y215.945 E624.51559
G1 X-6.248 Y215.310 E625.60346
G1 X-0.443 Y209.505 E637.98417
G1 X-0.811 Y209.505 E638.53945
G1 X-2.667 Y206.060 E644.44143
G1 X-8.232 Y211.625 E656.31172
G1 X-10.217 Y207.940 E662.62362
G1 X-4.651 Y202.375 E674.49391
G1 X-6.636 Y198.690 E680.80581
G1 X-12.201 Y204.255 E692.67609
G1 X-14.185 Y200.571 E698.98800
G1 X-8.620 Y195.005 E710.85826
G1 X-10.604 Y191.320 E717.17016
G1 X-16.170 Y196.886 E729.04045
G1 X-18.154 Y193.201 E735.35235
G1 X-12.589 Y187.636 E747.22261
G1 X-14.573 Y183.951 E753.53451
G1 X-20.139 Y189.516 E765.40477
G1 X-22.123 Y185.831 E771.71668
G1 X-16.558 Y180.266 E783.58694
G1 X-18.542 Y176.581 E789.89884
G1 X-24.108 Y182.147 E801.76907
G1 X-26.092 Y178.462 E808.08097
G1 X-20.527 Y172.896 E819.95123
G1 X-22.511 Y169.211 E826.26313
G1 X-28.077 Y174.777 E838.13337
G1 X-30.061 Y171.092 E844.44527
G1 X-24.496 Y165.527 E856.31550
G1 X-26.480 Y161.842 E862.62741
G1 X-32.046 Y167.407 E874.49764
G1 X-34.030 Y163.722 E880.80954
G1 X-28.465 Y158.157 E892.67978
G1 X-30.449 Y154.472 E898.99168
G1 X-36.015 Y160.038 E910.86191
G1 X-37.999 Y156.353 E917.17381
G1 X-32.434 Y150.787 E929.04402
G1 X-34.418 Y147.103 E935.35593
G1 X-39.983 Y152.668 E947.22614
G1 X-41.968 Y148.983 E953.53805
G1 X-36.402 Y143.418 E965.40824
G1 X-38.387 Y139.733 E971.72015
G1 X-43.952 Y145.298 E983.59036
G1 X-45.937 Y141.614 E989.90227
G1 X-40.371 Y136.048 E1001.77246
G1 X-42.356 Y132.363 E1008.08437
G1 X-47.921 Y137.929 E1019.95457
G1 X-49.906 Y134.244 E1026.26647
G1 X-44.340 Y128.679 E1038.13666
G1 X-46.325 Y124.994 E1044.44856
G1 X-51.890 Y130.559 E1056.31875
G1 X-53.875 Y126.874 E1062.63065
G1 X-48.309 Y121.309 E1074.50084
G1 X-50.294 Y117.624 E1080.81274
G1 X-55.859 Y123.190 E1092.68291
G1 X-57.844 Y119.505 E1098.99482
G1 X-52.278 Y113.939 E1110.86499
G1 X-54.263 Y110.255 E1117.17689
G1 X-59.828 Y115.820 E1129.04706
G1 X-61.813 Y112.135 E1135.35896
G1 X-56.247 Y106.570 E1147.22912
G1 X-58.232 Y102.885 E1153.54103
G1 X-63.797 Y108.450 E1165.41119
G1 X-65.781 Y104.766 E1171.72309
G1 X-60.216 Y99.200 E1183.59324
G1 X-62.200 Y95.515 E1189.90515
G1 X-67.766 Y101.081 E1201.77530
G1 X-69.750 Y97.396 E1208.08720
G1 X-64.185 Y91.830 E1219.95735
G1 X-66.169 Y88.146 E1226.26926
G1 X-71.735 Y93.711 E1238.13941
G1 X-73.719 Y90.026 E1244.45131
G1 X-68.154 Y84.461 E1256.32144
G1 X-70.138 Y80.776 E1262.63334
G1 X-75.704 Y86.341 E1274.50347
G1 X-77.688 Y82.657 E1280.81537
G1 X-72.123 Y77.091 E1292.68550
G1 X-74.107 Y73.406 E1298.99740
G1 X-79.673 Y78.972 E1310.86753
G1 X-81.657 Y75.287 E1317.17943
G1 X-76.092 Y69.722 E1329.04955
G1 X-78.076 Y66.037 E1335.36145
G1 X-83.642 Y71.602 E1347.23157
G1 X-85.626 Y67.917 E1353.54347
G1 X-80.061 Y62.352 E1365.41358
G1 X-82.045 Y58.667 E1371.72549
G1 X-87.611 Y64.233 E1383.59560
G1 X-89.595 Y60.548 E1389.90751
G1 X-84.030 Y54.982 E1401.77761
G1 X-86.014 Y51.298 E1408.08951
G1 X-91.579 Y56.863 E1419.95960
G1 X-93.564 Y53.178 E1426.27150
G1 X-87.999 Y47.613 E1438.14159
G1 X-89.983 Y43.928 E1444.45350
G1 X-95.548 Y49.493 E1456.32359
G1 X-97.533 Y45.809 E1462.63549
G1 X-91.967 Y40.243 E1474.50557
G1 X-93.952 Y36.558 E1480.81748
G1 X-99.517 Y42.124 E1492.68755
G1 X-101.502 Y38.439 E1498.99946
G1 X-95.936 Y32.874 E1510.86954
G1 X-97.921 Y29.189 E1517.18144
G1 X-103.486 Y34.754 E1529.05152
G1 X-105.471 Y31.069 E1535.36343
G1 X-99.905 Y25.504 E1547.23349
G1 X-101.890 Y21.819 E1553.54539
G1 X-107.455 Y27.384 E1565.41544
G1 X-109.440 Y23.700 E1571.72735
G1 X-103.874 Y18.134 E1583.59740
G1 X-105.859 Y14.449 E1589.90931
G1 X-111.424 Y20.015 E1601.77936
G1 X-113.408 Y16.330 E1608.09126
G1 X-107.843 Y10.765 E1619.96131
G1 X-109.828 Y7.080 E1626.27321
G1 X-115.393 Y12.645 E1638.14325
G1 X-117.377 Y8.960 E1644.45516
G1 X-111.812 Y3.395 E1656.32520
G1 X-113.797 Y-0.290 E1662.63710
G1 X-119.362 Y5.276 E1674.50713
G1 X-121.346 Y1.591 E1680.81904
G1 X-115.781 Y-3.975 E1692.68906
G1 X-117.765 Y-7.659 E1699.00096
G1 X-123.331 Y-2.094 E1710.87098
G1 X-125.315 Y-5.779 E1717.18289
G1 X-119.750 Y-11.344 E1729.05290
G1 X-121.734 Y-15.029 E1735.36481
G1 X-127.300 Y-9.464 E1747.23483
G1 X-129.284 Y-13.148 E1753.54673
G1 X-123.719 Y-18.714 E1765.41674
G1 X-125.703 Y-22.399 E1771.72864
G1 X-131.269 Y-16.833 E1783.59865
G1 X-133.253 Y-20.518 E1789.91055
G1 X-127.688 Y-26.083 E1801.78055
G1 X-129.672 Y-29.768 E1808.09246
G1 X-135.238 Y-24.203 E1819.96246
G1 X-137.222 Y-27.888 E1826.27437
G1 X-131.657 Y-33.453 E1838.14436
G1 X-133.641 Y-37.138 E1844.45626
G1 X-139.206 Y-31.573 E1856.32625
G1 X-141.191 Y-35.257 E1862.63815
G1 X-135.626 Y-40.823 E1874.50812
G1 X-137.610 Y-44.507 E1880.82003
G1 X-143.175 Y-38.942 E1892.69000
